src/static/logos/swagger.svg

<?xml version="1.0" encoding="UTF-8"?>
<svg width="256px" height="256px" viewBox="0 0 256 256" version="1.1" xmlns="http://www.w3.org/2000/svg" xmlns:xlink="http://www.w3.org/1999/xlink" preserveAspectRatio="xMidYMid">
		<g>
				<path d="M127.059657,255.996921 C58.8506544,255.526472 -0.457073619,198.918442 0.00265506057,126.998303 C0.444649399,57.7958628 57.9516598,-0.468967577 129.11002,0.00284555012 C198.267128,0.462386081 256.613109,57.8667711 255.995136,128.194199 C256.568091,197.883453 197.934268,256.489189 127.059657,255.996921 Z M127.059657,255.996921 C58.8506544,255.526472 -0.457073619,198.918442 0.00265506057,126.998303 C0.444649399,57.7958628 57.9516598,-0.468967577 129.11002,0.00284555012 C198.267128,0.462386081 256.613109,57.8667711 255.995136,128.194199 C256.568091,197.883453 197.934268,256.489189 127.059657,255.996921 Z" fill="#FFFFFF"></path>
				<path d="M127.184644,238.997327 C68.0323765,238.589271 16.6036091,189.498744 17.0023028,127.131428 C17.3860285,67.1185953 67.2554,16.5917106 128.963117,17.0024872 C188.934544,17.4010221 239.531905,67.1825241 238.995778,128.169251 C239.492444,188.602381 188.64743,239.424426 127.184644,238.997327 Z M127.184644,238.997327 C68.0323765,238.589271 16.6036091,189.498744 17.0023028,127.131428 C17.3860285,67.1185953 67.2554,16.5917106 128.963117,17.0024872 C188.934544,17.4010221 239.531905,67.1825241 238.995778,128.169251 C239.492444,188.602381 188.64743,239.424426 127.184644,238.997327 Z" fill="#49A32B"></path>
				<path d="M169.327319,127.956161 C169.042723,133.246373 164.421106,137.639224 159.866213,136.872586 C159.844426,136.872586 159.821277,136.872586 159.798128,136.872586 C154.753021,136.879395 150.658383,132.794288 150.652936,127.749182 C150.824511,122.690458 155.019915,118.703395 160.08,118.789182 C165.125106,118.813692 169.59966,123.077182 169.327319,127.956161 Z M88.2011915,179.220161 C90.1034894,179.27599 92.0071489,179.235139 94.2008511,179.235139 L94.2008511,193.021012 C80.5661277,195.326373 69.3348085,191.455054 66.5787234,179.929607 C65.6350638,175.69199 65.0549787,171.380841 64.8425532,167.04382 C64.5497872,162.452161 65.0563404,157.808756 64.706383,153.225267 C63.7368511,140.613182 62.1028085,136.30748 50,135.711054 L50,120.014714 C50.8674043,119.81182 51.7470638,119.662033 52.6321702,119.562629 C59.2677447,119.23582 62.0646809,117.201437 63.5489362,110.665267 C64.2243404,106.992756 64.6246809,103.275309 64.7431489,99.5428839 C65.268766,92.3258627 65.0822128,84.991735 66.2845957,77.8918201 C68.0221277,67.6245861 74.3962553,62.6366712 84.9249362,62.0783733 C87.9206809,61.9176925 90.9259574,62.0538627 94.3206809,62.0538627 L94.3206809,76.1447563 C92.9235745,76.2441605 91.6435745,76.4470542 90.3717447,76.4089265 C81.7916596,76.146118 81.3477447,79.0683308 80.7213617,86.1709691 C80.3305532,90.6250967 80.8697872,95.1554797 80.5661277,99.6245861 C80.2488511,104.071905 79.6537872,108.496075 78.7850213,112.869863 C77.547234,119.208586 73.6500426,123.922799 68.2495319,127.92348 C78.7332766,134.745607 79.9261277,145.346458 80.6069787,156.110714 C80.9732766,161.895224 80.8057872,167.720586 81.3926809,173.476501 C81.8502128,177.944246 83.5877447,179.08399 88.2011915,179.220161 Z M97.0372766,118.789182 C97.0917447,118.789182 97.1448511,118.789182 97.1993191,118.789182 C102.211745,118.872246 106.209702,123.002288 106.126638,128.016075 C106.126638,128.180841 106.121191,128.344246 106.11166,128.50765 C105.829787,133.407054 101.630298,137.149012 96.7308936,136.867139 C96.5334468,136.871224 96.3373617,136.867139 96.1399149,136.857607 C91.1506383,136.609778 87.3065532,132.36399 87.554383,127.374714 C87.8022128,122.385437 92.048,118.541352 97.0372766,118.789182 Z M128.273362,118.789182 C133.755574,118.746969 137.396766,122.29965 137.425362,127.719224 C137.455319,133.284501 134.003404,136.845352 128.556596,136.868501 C123.017191,136.893012 119.370553,133.389352 119.340596,128.002458 C119.324255,127.727395 119.32017,127.452331 119.32834,127.177267 C119.482213,122.390884 123.486979,118.635309 128.273362,118.789182 Z M193.673191,111.92348 C195.131574,117.370288 197.970723,119.284841 203.704851,119.546288 C204.644426,119.589863 205.579915,119.749182 206.868085,119.892161 L206.868085,135.584416 C206.170894,135.813182 205.456,135.984756 204.730213,136.096416 C197.046128,136.574373 193.54383,139.726714 192.76766,147.431224 C192.272,152.349692 192.312851,157.322629 191.972426,162.258799 C191.829447,167.678373 191.336511,173.082969 190.49634,178.438544 C188.535489,188.142033 182.477277,192.982884 172.467404,193.573863 C169.245617,193.764501 166.000681,193.60382 162.526979,193.60382 L162.526979,179.578288 C164.396596,179.462544 166.046979,179.303224 167.701447,179.263735 C173.682043,179.120756 175.796766,177.192586 176.089532,171.252841 C176.413617,164.727565 176.555234,158.194118 176.846638,151.66748 C177.270128,142.233607 179.853277,133.806033 188.641702,127.922118 C183.612936,124.336756 179.575489,119.994288 178.529702,114.138969 C177.264681,107.041778 176.85617,99.7879903 176.175319,92.5913946 C175.838979,88.9937776 175.855319,85.3648414 175.504,81.7699478 C175.125447,77.8890967 172.459234,76.5464584 168.926979,76.4593095 C166.903489,76.4102882 164.87183,76.4497776 162.284596,76.4497776 L162.284596,62.7537776 C178.793872,60.0126712 190.198128,65.5057776 191.257532,81.3015222 C191.701447,87.9343733 191.636085,94.5985435 192.060936,101.231395 C192.247489,104.839905 192.786723,108.421182 193.673191,111.92348 Z" fill="#FFFFFF"></path>
		</g>
</svg>

<svg width="256" height="256" xmlns="http://www.w3.org/2000/svg" preserveAspectRatio="xMidYMid"><path d="M127.06 255.997C58.85 255.527-.457 198.918.003 126.998.445 57.796 57.952-.469 129.11.003c69.157.46 127.503 57.864 126.885 128.191.573 69.69-58.06 128.295-128.935 127.803zm0 0C58.85 255.527-.457 198.918.003 126.998.445 57.796 57.952-.469 129.11.003c69.157.46 127.503 57.864 126.885 128.191.573 69.69-58.06 128.295-128.935 127.803z" fill="#FFF"/><path d="M127.185 238.997C68.032 238.59 16.604 189.5 17.002 127.131c.384-60.012 50.253-110.54 111.961-110.129 59.972.399 110.569 50.18 110.033 111.167.496 60.433-50.349 111.255-111.811 110.828zm0 0C68.032 238.59 16.604 189.5 17.002 127.131c.384-60.012 50.253-110.54 111.961-110.129 59.972.399 110.569 50.18 110.033 111.167.496 60.433-50.349 111.255-111.811 110.828z" fill="#49A32B"/><path d="M169.327 127.956c-.284 5.29-4.906 9.683-9.46 8.917h-.069a9.133 9.133 0 01-9.145-9.124 9.276 9.276 0 019.427-8.96c5.045.025 9.52 4.288 9.247 9.167zM88.201 179.22c1.902.056 3.806.015 6 .015v13.786c-13.635 2.305-24.866-1.566-27.622-13.091a76.501 76.501 0 01-1.736-12.886c-.293-4.592.213-9.235-.137-13.819-.97-12.612-2.603-16.918-14.706-17.514v-15.696a22.665 22.665 0 012.632-.452c6.636-.327 9.433-2.362 10.917-8.898a74.57 74.57 0 001.194-11.122c.526-7.217.34-14.551 1.542-21.651 1.737-10.267 8.111-15.255 18.64-15.814 2.996-.16 6.001-.024 9.396-.024v14.09c-1.397.1-2.677.303-3.95.265-8.58-.263-9.023 2.66-9.65 9.762-.39 4.454.149 8.984-.155 13.454a107.113 107.113 0 01-1.781 13.245c-1.238 6.339-5.135 11.053-10.535 15.053 10.483 6.823 11.676 17.423 12.357 28.188.366 5.784.199 11.61.786 17.366.457 4.467 2.195 5.607 6.808 5.743zm8.836-60.43h.162a9.078 9.078 0 018.928 9.226 8.884 8.884 0 01-9.396 8.851 9.046 9.046 0 11.306-18.078zm31.236 0c5.483-.043 9.124 3.51 9.152 8.93.03 5.565-3.422 9.125-8.868 9.149-5.54.024-9.186-3.48-9.216-8.867a8.671 8.671 0 018.933-9.213zm65.4-6.867c1.459 5.447 4.298 7.362 10.032 7.623.94.044 1.875.203 3.163.346v15.692c-.697.23-1.412.4-2.138.512-7.684.478-11.186 3.63-11.962 11.335-.496 4.919-.455 9.892-.796 14.828a125.806 125.806 0 01-1.476 16.18c-1.96 9.703-8.019 14.544-18.029 15.135-3.221.19-6.466.03-9.94.03v-14.026c1.87-.115 3.52-.275 5.174-.314 5.981-.143 8.096-2.071 8.389-8.011.324-6.525.465-13.059.757-19.586.423-9.433 3.006-17.861 11.795-23.745-5.03-3.585-9.067-7.928-10.112-13.783-1.265-7.097-1.674-14.351-2.355-21.548-.336-3.597-.32-7.226-.671-10.821-.379-3.88-3.045-5.224-6.577-5.31-2.024-.05-4.055-.01-6.642-.01V62.754c16.509-2.741 27.913 2.752 28.973 18.548.443 6.632.378 13.297.803 19.93.186 3.608.726 7.19 1.612 10.691z" fill="#FFF"/></svg>
